**kern	**silbe	**kern	**silbe	**harmony	**phrase	**leadinstrument	**rhyme	**timestamp	**harte
*ICvox	*	*ICvox	*	*M4/4	*	*	*	*	*M4/4
*VRlead	*	*VRbacking*VRharmonize	*	*	*	*	*	*	*
*Hstimme	*	*Nstimme	*	*	*	*	*	*	*
*E:	*	*E:	*	*E:	*	*	*	*	*E:
*M4/4	*	*M4/4	*	*	*	*	*	*	*
*clefF4	*	*clefC3	*	*	*	*	*	*	*
r;	.	r;	.	1r;	.	r	.	0	N.C.
=1	=1	=1	=1	=1	=1	=1	=1	=1	=1
*>Letter>A	*>Letter>A	*>Letter>A	*>Letter>A	*>Letter>A	*>Letter>A	*>Letter>A	*>Letter>A	*>Letter>A	*>Letter>A
*>Label>Intro	*>Label>Intro	*>Label>Intro	*>Label>Intro	*>Label>Intro	*>Label>Intro	*>Label>Intro	*>Label>Intro	*>Label>Intro	*>Label>Intro
1r	.	2r	.	4EM	newline	r	.	0.372	E:maj
.	.	.	.	4F#mm	.	r	.	0.952	F#:min7
.	.	8G# 8B	Ooh	2EM	.	r	.	1.532	E:maj/3
.	.	8A 8c	_	.	.	.	.	.	.
.	.	8B 8d	_	.	.	.	.	.	.
.	.	[8c [8e	_	.	.	.	.	.	.
=2	=2	=2	=2	=2	=2	=2	=2	=2	=2
1r	.	4.c] 4.e]	_	1CM	newline	r	.	2.693	C:maj
.	.	[8B [8d	_	.	.	.	.	.	.
.	.	4.B] 4.d]	_	.	.	.	.	.	.
.	.	[8A [8c	_	.	.	.	.	.	.
=3	=3	=3	=3	=3	=3	=3	=3	=3	=3
1r	.	2A] 2c]	_	1DM	.	r	.	4.986	D:maj
.	.	4.F# 4.A	_	.	.	.	.	.	.
.	.	[8G# [8B	_	.	.	.	.	.	.
=4	=4	=4	=4	=4	=4	=4	=4	=4	=4
1r	.	1G#] 1B]	_	1EM	.	r	.	7.28	E:maj
=5	=5	=5	=5	=5	=5	=5	=5	=5	=5
1r	.	4r	.	4EM	.	r	.	9.574	E:maj
.	.	8r	.	4F#mm	.	r	.	10.147	F#:min7
.	.	8r	.	.	.	.	.	.	.
.	.	8G# 8B	Ooh	2EM	.	r	.	10.721	E:maj/3
.	.	8A 8c	_	.	.	.	.	.	.
.	.	8B 8d	_	.	.	.	.	.	.
.	.	[8c [8e	_	.	.	.	.	.	.
=6	=6	=6	=6	=6	=6	=6	=6	=6	=6
1r	.	4.c] 4.e]	_	1CM	newline	r	.	11.867	C:maj
.	.	[8B [8d	_	.	.	.	.	.	.
.	.	4.B] 4.d]	_	.	.	.	.	.	.
.	.	[8A [8c	_	.	.	.	.	.	.
=7	=7	=7	=7	=7	=7	=7	=7	=7	=7
1r	.	2A] 2c]	_	1DM	.	r	.	14.16	D:maj
.	.	4.F# 4.A	_	.	.	.	.	.	.
.	.	[8G# [8B	_	.	.	.	.	.	.
=8	=8	=8	=8	=8	=8	=8	=8	=8	=8
*>Letter>B	*>Letter>B	*>Letter>B	*>Letter>B	*>Letter>B	*>Letter>B	*>Letter>B	*>Letter>B	*>Letter>B	*>Letter>B
*>Label>Verse	*>Label>Verse	*>Label>Verse	*>Label>Verse	*>Label>Verse	*>Label>Verse	*>Label>Verse	*>Label>Verse	*>Label>Verse	*>Label>Verse
8Aq	_	.	.	.	.	.	.	.	.
[2B	How	1G#] 1B]	_	1EM	newline	voice	.	16.453	E:maj
8B]	_	.	.	.	.	.	.	.	.
8r	.	.	.	.	.	.	.	.	.
4r	.	.	.	.	.	.	.	.	.
=9	=9	=9	=9	=9	=9	=9	=9	=9	=9
2r	.	1r	.	1C#mm	.	voice	.	18.722	C#:min7
8.B	How	.	.	.	.	.	.	.	.
[16A	can	.	.	.	.	.	.	.	.
8A]	_	.	.	.	.	.	.	.	.
8G#	it	.	.	.	.	.	.	.	.
=10	=10	=10	=10	=10	=10	=10	=10	=10	=10
8F#	_	1r	.	1DM	.	voice	.	20.991	D:maj
4F#	be	.	.	.	.	.	.	.	.
8r	.	.	.	.	.	.	.	.	.
4.r	.	.	.	.	.	.	.	.	.
16F#	That	.	.	.	.	.	.	.	.
16G#	a	.	.	.	.	.	.	.	.
=11	=11	=11	=11	=11	=11	=11	=11	=11	=11
4A	love	1r	.	1Bm	.	voice	.	23.26	B:min
4r	.	.	.	.	.	.	.	.	.
8G#q	_	.	.	.	.	.	.	.	.
8.A	carved	.	.	.	.	.	.	.	.
[16G#	out	.	.	.	.	.	.	.	.
8G#]	_	.	.	.	.	.	.	.	.
8F#	of	.	.	.	.	.	.	.	.
=12	=12	=12	=12	=12	=12	=12	=12	=12	=12
8.G#	ca-	1r	.	1EM	newline	voice	.	25.529	E:maj
[16E	-ring	.	.	.	.	.	.	.	.
8E]	_	.	.	.	.	.	.	.	.
8r	.	.	.	.	.	.	.	.	.
8E	fa-	.	.	.	.	.	.	.	.
8F#	-shioned	.	.	.	.	.	.	.	.
8G#	by	.	.	.	.	.	.	.	.
8Aq	_	.	.	.	.	.	.	.	.
[8B	fate	.	.	.	.	.	.	.	.
=13	=13	=13	=13	=13	=13	=13	=13	=13	=13
8B]	_	1r	.	1C#mm	.	voice	.	27.828	C#:min7
4r	.	.	.	.	.	.	.	.	.
8~BB	could	.	.	.	.	.	.	.	.
8.B	suf-	.	.	.	.	.	.	.	.
[16A	-fer	.	.	.	.	.	.	.	.
8A]	_	.	.	.	.	.	.	.	.
8G#	so	.	.	.	.	.	.	.	.
=14	=14	=14	=14	=14	=14	=14	=14	=14	=14
8F#	_	1r	.	1DM	.	voice	.	30.126	D:maj
4F#	hard	.	.	.	.	.	.	.	.
8r	.	.	.	.	.	.	.	.	.
4r	.	.	.	.	.	.	.	.	.
8r	.	.	.	.	.	.	.	.	.
16F#	From	.	.	.	.	.	.	.	.
16G#	the	.	.	.	.	.	.	.	.
=15	=15	=15	=15	=15	=15	=15	=15	=15	=15
4A	games	1r	.	1Bm	.	voice	.	32.424	B:min
4r	.	.	.	.	.	.	.	.	.
8G#q	_	.	.	.	.	.	.	.	.
8.A	we	.	.	.	.	.	.	.	.
[16G#	play	.	.	.	.	.	.	.	.
8G#]	_	.	.	.	.	.	.	.	.
8F#	too	.	.	.	.	.	.	.	.
=16	=16	=16	=16	=16	=16	=16	=16	=16	=16
8.G#	of-	1r	.	1EM	newline	voice	.	34.723	E:maj
[16E	-ten	.	.	.	.	.	.	.	.
8E]	_	.	.	.	.	.	.	.	.
8r	.	.	.	.	.	.	.	.	.
2r	.	.	.	.	.	.	.	.	.
=17	=17	=17	=17	=17	=17	=17	=17	=17	=17
4r	.	1r	.	1C#mm	.	voice	.	37.004	C#:min7
8r	.	.	.	.	.	.	.	.	.
8BB	But	.	.	.	.	.	.	.	.
8Aq	_	.	.	.	.	.	.	.	.
8.B	ma-	.	.	.	.	.	.	.	.
[16A	-king	.	.	.	.	.	.	.	.
8A]	_	.	.	.	.	.	.	.	.
8G#	mis	.	.	.	.	.	.	.	.
=18	=18	=18	=18	=18	=18	=18	=18	=18	=18
8F#	_	1r	.	1DM	.	voice	.	39.285	D:maj
4F#	takes	.	.	.	.	.	.	.	.
8r	.	.	.	.	.	.	.	.	.
4r	.	.	.	.	.	.	.	.	.
8r	.	.	.	.	.	.	.	.	.
16F#	is	.	.	.	.	.	.	.	.
16G#	a	.	.	.	.	.	.	.	.
=19	=19	=19	=19	=19	=19	=19	=19	=19	=19
4A	part	1r	.	1Bm	.	voice	.	41.567	B:min
8r	.	.	.	.	.	.	.	.	.
8BB	of	.	.	.	.	.	.	.	.
8G#q	_	.	.	.	.	.	.	.	.
8.A	life's	.	.	.	.	.	.	.	.
[16G#	im	.	.	.	.	.	.	.	.
8G#]	_	.	.	.	.	.	.	.	.
8F#	per-	.	.	.	.	.	.	.	.
=20	=20	=20	=20	=20	=20	=20	=20	=20	=20
8.G#	-fec-	1r	.	1EM	newline	voice	.	43.848	E:maj
[16B	-tions	.	.	.	.	.	.	.	.
8B]	_	.	.	.	.	.	.	.	.
8r	.	.	.	.	.	.	.	.	.
8E	born	.	.	.	.	.	.	.	.
8F#	of	.	.	.	.	.	.	.	.
8G#	the	.	.	.	.	.	.	.	.
16B	years	.	.	.	.	.	.	.	.
16c#	_	.	.	.	.	.	.	.	.
=21	=21	=21	=21	=21	=21	=21	=21	=21	=21
4B	_	1r	.	1C#mm	.	voice	.	46.138	C#:min7
4r	.	.	.	.	.	.	.	.	.
8Aq	_	.	.	.	.	.	.	.	.
8.B	is	.	.	.	.	.	.	.	.
[16A	it	.	.	.	.	.	.	.	.
8A]	_	.	.	.	.	.	.	.	.
8G#	so	.	.	.	.	.	.	.	.
=22	=22	=22	=22	=22	=22	=22	=22	=22	=22
8F#	_	1r	.	1DM	.	voice	.	48.429	D:maj
4F#	wrong	.	.	.	.	.	.	.	.
8r	.	.	.	.	.	.	.	.	.
4r	.	.	.	.	.	.	.	.	.
8r	.	.	.	.	.	.	.	.	.
16F#	To	.	.	.	.	.	.	.	.
16G#	be	.	.	.	.	.	.	.	.
=23	=23	=23	=23	=23	=23	=23	=23	=23	=23
4A	hu-	1r	.	1Bm	.	voice	.	50.72	B:min
8G#	-man	.	.	.	.	.	.	.	.
8F#	_	.	.	.	.	.	.	.	.
4F#	af-	.	.	.	.	.	.	.	.
8G#	-ter	.	.	.	.	.	.	.	.
8E	_	.	.	.	.	.	.	.	.
=24	=24	=24	=24	=24	=24	=24	=24	=24	=24
1E	all?	[1g#	Ha,	1EM	newline	voice	.	53.01	E:maj
=25	=25	=25	=25	=25	=25	=25	=25	=25	=25
1r	.	4g#]	_	4EM	.	voice	.	55.313	E:maj
.	.	4g#	drawn	4F#mm	.	voice	.	55.889	F#:min7
.	.	8g#	in-	2EM	.	voice	.	56.465	E:maj/3
.	.	8f#	-to	.	.	.	.	.	.
.	.	8e	the	.	.	.	.	.	.
.	.	[8g	stream	.	.	.	A	.	.
=26	=26	=26	=26	=26	=26	=26	=26	=26	=26
*>Letter>A	*>Letter>A	*>Letter>A	*>Letter>A	*>Letter>A	*>Letter>A	*>Letter>A	*>Letter>A	*>Letter>A	*>Letter>A
*>Label>Chorus	*>Label>Chorus	*>Label>Chorus	*>Label>Chorus	*>Label>Chorus	*>Label>Chorus	*>Label>Chorus	*>Label>Chorus	*>Label>Chorus	*>Label>Chorus
1r	.	2g]	_	1CM	newline	voice	.	57.616	C:maj
.	.	4r	.	.	.	.	.	.	.
.	.	8aq	_	.	.	.	.	.	.
.	.	8b	of	.	.	.	.	.	.
.	.	[8a	un	.	.	.	.	.	.
=27	=27	=27	=27	=27	=27	=27	=27	=27	=27
1r	.	4a]	_	1DM	.	voice	.	59.905	D:maj
.	.	8eq	_	.	.	.	.	.	.
.	.	8f#	de-	.	.	.	.	.	.
.	.	[8e	-fined	.	.	.	.	.	.
.	.	4e]	_	.	.	.	.	.	.
.	.	8Bq	_	.	.	.	.	.	.
.	.	8c#	il-	.	.	.	.	.	.
.	.	[8B	-lu	.	.	.	B	.	.
=28	=28	=28	=28	=28	=28	=28	=28	=28	=28
1r	.	4.B]	_	1EM	.	voice	.	62.195	E:maj
.	.	8f#q	_	.	.	.	.	.	.
.	.	[8g#	sion	.	.	.	.	.	.
.	.	2g#]	_	.	.	.	.	.	.
=29	=29	=29	=29	=29	=29	=29	=29	=29	=29
1r	.	4r	.	4EM	.	voice	.	64.484	E:maj
.	.	4g#	those	4F#mm	.	voice	.	65.056	F#:min7
.	.	8g#	di-	2EM	.	voice	.	65.629	E:maj/3
.	.	8f#	-a-	.	.	.	.	.	.
.	.	8e	-mond	.	.	.	.	.	.
.	.	[8g	dreams	.	.	.	A	.	.
=30	=30	=30	=30	=30	=30	=30	=30	=30	=30
1r	.	2g]	_	1CM	newline	voice	.	66.773	C:maj
.	.	4r	.	.	.	.	.	.	.
.	.	8aq	_	.	.	.	.	.	.
.	.	8b	they	.	.	.	.	.	.
.	.	[8a	can't	.	.	.	.	.	.
=31	=31	=31	=31	=31	=31	=31	=31	=31	=31
1r	.	4a]	_	1DM	.	voice	.	69.047	D:maj
.	.	8eq	_	.	.	.	.	.	.
.	.	8f#	dis-	.	.	.	.	.	.
.	.	[8e	-guise	.	.	.	.	.	.
.	.	4e]	_	.	.	.	.	.	.
.	.	8Bq	_	.	.	.	.	.	.
.	.	8c#	the	.	.	.	.	.	.
.	.	[8B	truth!	.	.	.	B	.	.
=32	=32	=32	=32	=32	=32	=32	=32	=32	=32
1r	.	1B]	_	1EM	.	voice	.	71.32	E:maj
=33	=33	=33	=33	=33	=33	=33	=33	=33	=33
8r	.	1r	.	4EM	.	voice	.	73.593	E:maj
8B	That	.	.	.	.	.	.	.	.
8B	there	.	.	4F#mm	.	voice	.	74.161	F#:min7
8e	is	.	.	.	.	.	.	.	.
8B	some-	.	.	2EM	.	voice	.	74.729	E:maj/3
8A	-thing	.	.	.	.	.	.	.	.
8G	a-	.	.	.	.	.	.	.	.
8A	-bout	.	.	.	.	.	.	.	.
=34	=34	=34	=34	=34	=34	=34	=34	=34	=34
8G	_	1r	.	1CM	newline	voice	.	75.866	C:maj
4G	you	.	.	.	.	.	.	.	.
8r	.	.	.	.	.	.	.	.	.
4r	.	.	.	.	.	.	.	.	.
8r	.	.	.	.	.	.	.	.	.
8Aq	_	.	.	.	.	.	.	.	.
8B	ba	.	.	.	.	.	.	.	.
=35	=35	=35	=35	=35	=35	=35	=35	=35	=35
8A	_	1r	.	1DM	.	voice	.	78.156	D:maj
4A	by	.	.	.	.	.	.	.	.
8r	.	.	.	.	.	.	.	.	.
4r	.	.	.	.	.	.	.	.	.
8Gq	_	.	.	.	.	.	.	.	.
8A	so	.	.	.	.	.	.	.	.
[8B	right	.	.	.	.	.	C	.	.
=36	=36	=36	=36	=36	=36	=36	=36	=36	=36
2.B_	_	1r	.	1EM	.	voice	.	80.446	E:maj
8B]	_	.	.	.	.	.	.	.	.
8r	.	.	.	.	.	.	.	.	.
=37	=37	=37	=37	=37	=37	=37	=37	=37	=37
8r	.	1r	.	4EM	.	voice	.	82.736	E:maj
8B	I	.	.	.	.	.	.	.	.
8B	would-	.	.	4F#mm	.	voice	.	83.308	F#:min7
8B	-n't	.	.	.	.	.	.	.	.
8B	be	.	.	2EM	.	voice	.	83.88	E:maj/3
8A	_	.	.	.	.	.	.	.	.
8G	with-	.	.	.	.	.	.	.	.
8A	-out	.	.	.	.	.	.	.	.
=38	=38	=38	=38	=38	=38	=38	=38	=38	=38
8G	_	1r	.	1CM	newline	voice	.	85.025	C:maj
4G	you	.	.	.	.	.	.	.	.
8r	.	.	.	.	.	.	.	.	.
8B	ba	.	.	.	.	.	.	.	.
8c	_	.	.	.	.	.	.	.	.
8B	_	.	.	.	.	.	.	.	.
8A	by	.	.	.	.	.	.	.	.
=39	=39	=39	=39	=39	=39	=39	=39	=39	=39
2r	.	1r	.	1DM	.	voice	.	87.33	D:maj
4r	.	.	.	.	.	.	.	.	.
8c#	to-	.	.	.	.	.	.	.	.
[8B	-night	.	.	.	.	.	C	.	.
=40	=40	=40	=40	=40	=40	=40	=40	=40	=40
*>Letter>B	*>Letter>B	*>Letter>B	*>Letter>B	*>Letter>B	*>Letter>B	*>Letter>B	*>Letter>B	*>Letter>B	*>Letter>B
*>Label>Verse	*>Label>Verse	*>Label>Verse	*>Label>Verse	*>Label>Verse	*>Label>Verse	*>Label>Verse	*>Label>Verse	*>Label>Verse	*>Label>Verse
2.B]	_	1r	.	1EM	->newline	voice	.	89.635	E:maj
4r	.	.	.	.	.	.	.	.	.
=41	=41	=41	=41	=41	=41	=41	=41	=41	=41
4r	.	1r	.	1C#mm	.	voice	.	91.911	C#:min7
8r	.	.	.	.	.	.	.	.	.
8~BB	If	.	.	.	.	.	.	.	.
8.B	e-	.	.	.	.	.	.	.	.
[16A	-ver	.	.	.	.	.	.	.	.
8A]	_	.	.	.	.	.	.	.	.
8G#	our	.	.	.	.	.	.	.	.
=42	=42	=42	=42	=42	=42	=42	=42	=42	=42
8F#	_	1r	.	1DM	.	voice	.	94.187	D:maj
4F#	love	.	.	.	.	.	.	.	.
8r	.	.	.	.	.	.	.	.	.
8.r	.	.	.	.	.	.	.	.	.
[16F#	was	.	.	.	.	.	.	.	.
16F#]	_	.	.	.	.	.	.	.	.
8G#	con	.	.	.	.	.	.	.	.
16G#Q	_	.	.	.	.	.	.	.	.
[16A	cealed	.	.	.	.	.	D	.	.
=43	=43	=43	=43	=43	=43	=43	=43	=43	=43
4A]	_	1r	.	1Bm	.	voice	.	96.463	B:min
4r	.	.	.	.	.	.	.	.	.
8G#q	_	.	.	.	.	.	.	.	.
8.A	no	.	.	.	.	.	.	.	.
[16G#	one	.	.	.	.	.	.	.	.
8G#]	_	.	.	.	.	.	.	.	.
8F#	can	.	.	.	.	.	.	.	.
=44	=44	=44	=44	=44	=44	=44	=44	=44	=44
8.G#	say	1r	.	1EM	newline	voice	.	98.74	E:maj
[16B	that	.	.	.	.	.	.	.	.
8B]	_	.	.	.	.	.	.	.	.
8r	.	.	.	.	.	.	.	.	.
8E	we	.	.	.	.	.	.	.	.
8F#	did-	.	.	.	.	.	.	.	.
8G#	-n't	.	.	.	.	.	.	.	.
16B	feel	.	.	.	.	.	D	.	.
16c#	_	.	.	.	.	.	.	.	.
=45	=45	=45	=45	=45	=45	=45	=45	=45	=45
4B	_	1r	.	1C#mm	.	voice	.	101.023	C#:min7
4r	.	.	.	.	.	.	.	.	.
8Aq	_	.	.	.	.	.	.	.	.
8.B	a	.	.	.	.	.	.	.	.
[16A	mil	.	.	.	.	.	.	.	.
8A]	_	.	.	.	.	.	.	.	.
8G#	lion	.	.	.	.	.	.	.	.
=46	=46	=46	=46	=46	=46	=46	=46	=46	=46
8F#	_	1r	.	1DM	.	voice	.	103.307	D:maj
4F#	things	.	.	.	.	.	.	.	.
8r	.	.	.	.	.	.	.	.	.
4r	.	.	.	.	.	.	.	.	.
8r	.	.	.	.	.	.	.	.	.
16F#	and	.	.	.	.	.	.	.	.
16G#	a	.	.	.	.	.	.	.	.
=47	=47	=47	=47	=47	=47	=47	=47	=47	=47
4A	per-	1r	.	1Bm	.	voice	.	105.591	B:min
8G#	-fect	.	.	.	.	.	.	.	.
8F#	_	.	.	.	.	.	.	.	.
4F#	dream	.	.	.	.	.	.	.	.
8G#	of	.	.	.	.	.	.	.	.
8E	_	.	.	.	.	.	.	.	.
=48	=48	=48	=48	=48	=48	=48	=48	=48	=48
2E	life	1r	.	1EM	newline	voice	.	107.875	E:maj
4r	.	.	.	.	.	.	.	.	.
8r	.	.	.	.	.	.	.	.	.
[8B	Gone	.	.	.	.	.	.	.	.
=49	=49	=49	=49	=49	=49	=49	=49	=49	=49
4B]	_	4r	.	1C#mm	.	voice	.	110.168	C#:min7
4r	.	8r	.	.	.	.	.	.	.
.	.	8r	.	.	.	.	.	.	.
8.B	Fra-	8.e	Fra-	.	.	.	.	.	.
[16A	-gile,	[16c#	-gile,	.	.	.	.	.	.
8A]	_	8c#]	_	.	.	.	.	.	.
8G#	but	8B	but	.	.	.	.	.	.
=50	=50	=50	=50	=50	=50	=50	=50	=50	=50
8F#	_	8A	_	1DM	.	voice	.	112.462	D:maj
4F#	free	4A	free	.	.	.	D	.	.
8r	.	8r	.	.	.	.	.	.	.
4r	.	2r	.	.	.	.	.	.	.
8r	.	.	.	.	.	.	.	.	.
16F#	we	.	.	.	.	.	.	.	.
16G#	re-	.	.	.	.	.	.	.	.
=51	=51	=51	=51	=51	=51	=51	=51	=51	=51
4A	-main,	1r	.	1Bm	.	voice	.	114.755	B:min
4r	.	.	.	.	.	.	.	.	.
8G#q	_	.	.	.	.	.	.	.	.
8.A	ten-	.	.	.	.	.	.	.	.
[16G#	-der	.	.	.	.	.	.	.	.
8G#]	_	.	.	.	.	.	.	.	.
8F#	to-	.	.	.	.	.	.	.	.
=52	=52	=52	=52	=52	=52	=52	=52	=52	=52
8.G#	-ge-	2r	.	1EM	newline	voice	.	117.049	E:maj
[16B	-ther	.	.	.	.	.	.	.	.
16B]	_	.	.	.	.	.	.	.	.
16r	.	.	.	.	.	.	.	.	.
8BB	if	.	.	.	.	.	.	.	.
8E	not	8G#	not	.	.	.	.	.	.
8F#	so	8A	so	.	.	.	.	.	.
8G#	in	8B	in	.	.	.	.	.	.
16B	love	[8e	love	.	.	.	.	.	.
16c#	_	.	.	.	.	.	.	.	.
=53	=53	=53	=53	=53	=53	=53	=53	=53	=53
4B	_	4e]	_	1C#mm	.	voice	.	119.33	C#:min7
4r	.	4r	.	.	.	.	.	.	.
8Aq	_	8c#q	_	.	.	.	.	.	.
8.B	it's	8.e	it's	.	.	.	.	.	.
[16A	not	[16c#	not	.	.	.	.	.	.
8A]	_	8c#]	_	.	.	.	.	.	.
8G#	so	8B	so	.	.	.	.	.	.
=54	=54	=54	=54	=54	=54	=54	=54	=54	=54
8F#	_	8A	_	1DM	.	voice	.	121.611	D:maj
4F#	wrong	4A	wrong	.	.	.	.	.	.
8r	.	8r	.	.	.	.	.	.	.
8r	.	2r	.	.	.	.	.	.	.
8E	we're	.	.	.	.	.	.	.	.
8F#	on-	.	.	.	.	.	.	.	.
8G#	-ly	.	.	.	.	.	.	.	.
=55	=55	=55	=55	=55	=55	=55	=55	=55	=55
4A	hu-	1r	.	1Bm	.	voice	.	123.892	B:min
8G#	-man	.	.	.	.	.	.	.	.
8F#	_	.	.	.	.	.	.	.	.
4F#	af-	.	.	.	.	.	.	.	.
8G#	-ter	.	.	.	.	.	.	.	.
8E	_	.	.	.	.	.	.	.	.
=56	=56	=56	=56	=56	=56	=56	=56	=56	=56
[2.E	all	[1e [1g#	Ha,	1EM	newline	voice	.	126.173	E:maj
8E]	_	.	.	.	.	.	.	.	.
16F#	_	.	.	.	.	.	.	.	.
[16G#	_	.	.	.	.	.	.	.	.
=57	=57	=57	=57	=57	=57	=57	=57	=57	=57
4G#]	_	4e] 4g#]	_	4EM	.	voice	.	128.476	E:maj
4r	.	4e 4g#	these	4F#mm	.	voice	.	129.052	F#:min7
2r	.	8e 8g#	chan	2EM	.	voice	.	129.628	E:maj/3
.	.	8c# 8f#	_	.	.	.	.	.	.
.	.	8B 8e	ging	.	.	.	.	.	.
.	.	[8B [8g	years	.	.	.	E	.	.
=58	=58	=58	=58	=58	=58	=58	=58	=58	=58
*>Letter>C	*>Letter>C	*>Letter>C	*>Letter>C	*>Letter>C	*>Letter>C	*>Letter>C	*>Letter>C	*>Letter>C	*>Letter>C
*>Label>Chorus	*>Label>Chorus	*>Label>Chorus	*>Label>Chorus	*>Label>Chorus	*>Label>Chorus	*>Label>Chorus	*>Label>Chorus	*>Label>Chorus	*>Label>Chorus
1r	.	2B] 2g]	_	1CM	newline	voice	.	130.78	C:maj
.	.	4r	.	.	.	.	.	.	.
.	.	8aq	_	.	.	.	.	.	.
.	.	8d 8b	they	.	.	.	.	.	.
.	.	[8d [8a	add	.	.	.	.	.	.
=59	=59	=59	=59	=59	=59	=59	=59	=59	=59
1r	.	4d] 4a]	_	1DM	.	voice	.	133.077	D:maj
.	.	8eq	_	.	.	.	.	.	.
.	.	8A 8f#	to	.	.	.	.	.	.
.	.	8A [8e	your	.	.	.	.	.	.
.	.	4A 4e]	_	.	.	.	.	.	.
.	.	8Bq	_	.	.	.	.	.	.
.	.	8A 8c#	con-	.	.	.	.	.	.
.	.	[8G# [8B	-fu	.	.	.	B	.	.
=60	=60	=60	=60	=60	=60	=60	=60	=60	=60
1r	.	4.G#] 4.B]	_	1EM	.	voice	.	135.374	E:maj
.	.	8Aq 8f#q	_	.	.	.	.	.	.
.	.	[8B [8g#	sion!	.	.	.	.	.	.
.	.	2B] 2g#]	_	.	.	.	.	.	.
=61	=61	=61	=61	=61	=61	=61	=61	=61	=61
1r	.	8r	.	4EM	.	voice	.	137.671	E:maj
.	.	8B 8g#	Oh-	.	.	.	.	.	.
.	.	8B 8g#	-ho,	4F#mm	.	voice	.	138.245	F#:min7
.	.	8B 8a	you	.	.	.	.	.	.
.	.	8B 8g#	need	2EM	.	voice	.	138.819	E:maj/3
.	.	8B 8f#	_	.	.	.	.	.	.
.	.	8B 8e	to	.	.	.	.	.	.
.	.	[8B [8g	hear	.	.	.	E	.	.
=62	=62	=62	=62	=62	=62	=62	=62	=62	=62
1r	.	2B] 2g]	_	1CM	newline	voice	.	139.967	C:maj
.	.	4r	.	.	.	.	.	.	.
.	.	8aq	_	.	.	.	.	.	.
.	.	8d 8b	the	.	.	.	.	.	.
.	.	[8d [8a	time	.	.	.	.	.	.
=63	=63	=63	=63	=63	=63	=63	=63	=63	=63
1r	.	4d] 4a]	_	1DM	.	voice	.	142.241	D:maj
.	.	8eq	_	.	.	.	.	.	.
.	.	8A 8f#	that	.	.	.	.	.	.
.	.	[8A [8e	told	.	.	.	.	.	.
.	.	4A] 4e]	_	.	.	.	.	.	.
.	.	8Bq	_	.	.	.	.	.	.
.	.	8A 8c#	the	.	.	.	.	.	.
.	.	[8G# [8B	truth	.	.	.	B	.	.
=64	=64	=64	=64	=64	=64	=64	=64	=64	=64
1r	.	1G#] 1B]	_	1EM	.	voice	.	144.515	E:maj
=65	=65	=65	=65	=65	=65	=65	=65	=65	=65
8r	.	2r	.	4EM	.	voice	.	146.789	E:maj
8B	Be-	.	.	.	.	.	.	.	.
8B	-cause	.	.	4F#mm	.	voice	.	147.358	F#:min7
8e	there's	.	.	.	.	.	.	.	.
8B	some-	8e 8g#	Some-	2EM	.	voice	.	147.926	E:maj/3
8A	-thing	8c# 8f#	-thing	.	.	.	.	.	.
8G	a-	8B 8e	a-	.	.	.	.	.	.
8A	-bout	[8B [8g	-bout	.	.	.	.	.	.
=66	=66	=66	=66	=66	=66	=66	=66	=66	=66
8G	_	2B] 2g]	_	1CM	newline	voice	.	149.063	C:maj
4G	you	.	.	.	.	.	.	.	.
8r	.	.	.	.	.	.	.	.	.
4r	.	4r	.	.	.	.	.	.	.
.	.	8aq	_	.	.	.	.	.	.
8r	.	8d 8b	the	.	.	.	.	.	.
8Aq	_	.	.	.	.	.	.	.	.
8B	ba	[8d [8a	way	.	.	.	.	.	.
=67	=67	=67	=67	=67	=67	=67	=67	=67	=67
8A	_	4d] 4a]	_	1DM	.	voice	.	151.353	D:maj
4A	by	.	.	.	.	.	.	.	.
.	.	8eq	_	.	.	.	.	.	.
.	.	8A 8f#	you	.	.	.	.	.	.
8r	.	8A [8e	all	.	.	.	.	.	.
4r	.	4A 4e]	_	.	.	.	.	.	.
8Gq	_	8Bq	_	.	.	.	.	.	.
8A	so	8A 8c#	sur-	.	.	.	.	.	.
[8B	right	[8G# [8B	-vive	.	.	.	.	.	.
=68	=68	=68	=68	=68	=68	=68	=68	=68	=68
2.B_	_	4.G#] 4.B]	_	1EM	.	voice	.	153.643	E:maj
.	.	8Aq 8f#q	_	.	.	.	.	.	.
.	.	[8B [8g#	_	.	.	.	.	.	.
.	.	2B] 2g#]	_	.	.	.	.	.	.
8B]	_	.	.	.	.	.	.	.	.
8r	.	.	.	.	.	.	.	.	.
=69	=69	=69	=69	=69	=69	=69	=69	=69	=69
8r	.	2r	.	4EM	.	voice	.	155.933	E:maj
8A#q	_	.	.	.	.	.	.	.	.
8B	I	.	.	.	.	.	.	.	.
8A#q	_	.	.	.	.	.	.	.	.
8B	could	.	.	4F#mm	.	voice	.	156.506	F#:min7
8A#q	_	.	.	.	.	.	.	.	.
8B	n't	.	.	.	.	.	.	.	.
8B	live	8B 8g#	I	2EM	.	voice	.	157.078	E:maj/3
8A	_	8B 8f#	could-	.	.	.	.	.	.
8G	with-	8B 8e	-n't	.	.	.	.	.	.
8A	-out	[8B [8g	live	.	.	.	.	.	.
=70	=70	=70	=70	=70	=70	=70	=70	=70	=70
8G	_	2B] 2g]	_	1CM	newline	voice	.	158.224	C:maj
4G	you	.	.	.	.	.	.	.	.
8r	.	.	.	.	.	.	.	.	.
8B	ba	4r	.	.	.	.	.	.	.
8c	_	.	.	.	.	.	.	.	.
.	.	8aq	_	.	.	.	.	.	.
8B	_	8d 8b	with-	.	.	.	.	.	.
8A	by	[8d [8a	-out	.	.	.	.	.	.
=71	=71	=71	=71	=71	=71	=71	=71	=71	=71
2r	.	4d] 4a]	_	1DM	.	voice	.	160.501	D:maj
.	.	8eq	_	.	.	.	.	.	.
.	.	8A 8f#	you	.	.	.	.	.	.
.	.	[8A [8e	here	.	.	.	.	.	.
4r	.	4A] 4e]	_	.	.	.	.	.	.
.	.	8Bq	_	.	.	.	.	.	.
8c#	so	8A 8c#	to-	.	.	.	.	.	.
[8B	right	[8G# [8B	-night!	.	.	.	.	.	.
=72	=72	=72	=72	=72	=72	=72	=72	=72	=72
2B_	_	2G#_ 2B]	_	1EM	.	voice	.	162.778	E:maj
8B]	_	8G#]	_	.	.	.	.	.	.
8Aq	_	8F#q	_	.	.	.	.	.	.
8B	_	8G#	_	.	.	.	.	.	.
8Aq	_	8F#q	_	.	.	.	.	.	.
8B	_	8G#	_	.	.	.	.	.	.
8Aq	_	8F#q	_	.	.	.	.	.	.
16B	_	16G#	_	.	.	.	.	.	.
16A	_	16F#	_	.	.	.	.	.	.
=73	=73	=73	=73	=73	=73	=73	=73	=73	=73
2G#	_	2E	_	4EM	.	voice	.	165.056	E:maj
.	.	.	.	4F#mm	.	voice	.	165.625	F#:min7
2r	.	8G#	(Vocalizing)	2EM	.	voice	.	166.194	E:maj/3
.	.	8F#	_	.	.	.	.	.	.
.	.	8E	_	.	.	.	.	.	.
.	.	[8G	_	.	.	.	.	.	.
=74	=74	=74	=74	=74	=74	=74	=74	=74	=74
*>Letter>A	*>Letter>A	*>Letter>A	*>Letter>A	*>Letter>A	*>Letter>A	*>Letter>A	*>Letter>A	*>Letter>A	*>Letter>A
*>Label>Solo	*>Label>Solo	*>Label>Solo	*>Label>Solo	*>Label>Solo	*>Label>Solo	*>Label>Solo	*>Label>Solo	*>Label>Solo	*>Label>Solo
1r	.	4G]	_	1CM	newline	guitar	.	167.333	C:maj
.	.	4r	.	.	.	.	.	.	.
.	.	2r	.	.	.	.	.	.	.
=75	=75	=75	=75	=75	=75	=75	=75	=75	=75
1r	.	1r	.	1DM	.	guitar	.	169.635	D:maj
=76	=76	=76	=76	=76	=76	=76	=76	=76	=76
1r	.	1r	.	1EM	.	guitar	.	171.938	E:maj
=77	=77	=77	=77	=77	=77	=77	=77	=77	=77
1r	.	1r	.	4EM	.	guitar	.	174.24	E:maj
.	.	.	.	4F#mm	.	guitar	.	174.816	F#:min7
.	.	.	.	2EM	.	guitar	.	175.391	E:maj/3
=78	=78	=78	=78	=78	=78	=78	=78	=78	=78
1r	.	1r	.	1CM	newline	guitar	.	176.542	C:maj
=79	=79	=79	=79	=79	=79	=79	=79	=79	=79
1r	.	1r	.	1DM	.	guitar	.	178.821	D:maj
=80	=80	=80	=80	=80	=80	=80	=80	=80	=80
1r	.	1r	.	1EM	.	guitar	.	181.099	E:maj
=81	=81	=81	=81	=81	=81	=81	=81	=81	=81
1r	.	2r	.	4EM	.	guitar	.	183.378	E:maj
.	.	.	.	4F#mm	.	guitar	.	183.948	F#:min7
.	.	8G# 8B	Ooh	2EM	.	guitar	.	184.517	E:maj/3
.	.	8A 8c	_	.	.	.	.	.	.
.	.	8B 8d	_	.	.	.	.	.	.
.	.	[8c [8e	_	.	.	.	.	.	.
=82	=82	=82	=82	=82	=82	=82	=82	=82	=82
1r	.	4.c] 4.e]	_	1CM	newline	guitar	.	185.656	C:maj
.	.	[8B [8d	_	.	.	.	.	.	.
.	.	4.B] 4.d]	_	.	.	.	.	.	.
.	.	[8A [8c	_	.	.	.	.	.	.
=83	=83	=83	=83	=83	=83	=83	=83	=83	=83
1r	.	2A] 2c]	_	1DM	.	guitar	.	187.947	D:maj
.	.	4.F# 4.A	_	.	.	.	.	.	.
.	.	[8G# [8B	_	.	.	.	.	.	.
=84	=84	=84	=84	=84	=84	=84	=84	=84	=84
1r	.	1G#] 1B]	_	1EM	.	guitar	.	190.239	E:maj
=85	=85	=85	=85	=85	=85	=85	=85	=85	=85
1r	.	4r	.	4EM	.	guitar	.	192.53	E:maj
.	.	8r	.	4F#mm	.	guitar	.	193.102	F#:min7
.	.	8r	.	.	.	.	.	.	.
.	.	8G# 8B	Ooh	2EM	.	guitar	.	193.675	E:maj/3
.	.	8A 8c	_	.	.	.	.	.	.
.	.	8B 8d	_	.	.	.	.	.	.
.	.	[8c [8e	_	.	.	.	.	.	.
=86	=86	=86	=86	=86	=86	=86	=86	=86	=86
1r	.	4.c] 4.e]	_	1CM	newline	guitar	.	194.821	C:maj
.	.	[8B [8d	_	.	.	.	.	.	.
.	.	4.B] 4.d]	_	.	.	.	.	.	.
.	.	[8A [8c	_	.	.	.	.	.	.
=87	=87	=87	=87	=87	=87	=87	=87	=87	=87
1r	.	2A] 2c]	_	1DM	.	guitar	.	197.106	D:maj
.	.	4.F# 4.A	_	.	.	.	.	.	.
.	.	[8G# [8B	_	.	.	.	.	.	.
=88	=88	=88	=88	=88	=88	=88	=88	=88	=88
1r	.	1G#] 1B]	_	1EM	.	guitar	.	199.392	E:maj
=89	=89	=89	=89	=89	=89	=89	=89	=89	=89
8r	.	4r	.	4EM	.	guitar	.	201.678	E:maj
8B	And	.	.	.	.	.	.	.	.
8B	now	8r	.	4F#mm	.	guitar	.	202.249	F#:min7
8B	there's	8r	.	.	.	.	.	.	.
8e	some-	8G# 8B	Ooh	2EM	.	guitar	.	202.82	E:maj/3
8B	-thing	8A 8c	_	.	.	.	.	.	.
8e	a	8B 8d	_	.	.	.	.	.	.
8dq	_	.	.	.	.	.	.	.	.
[8e	bout	[8c [8e	_	.	.	.	.	.	.
=90	=90	=90	=90	=90	=90	=90	=90	=90	=90
*>Letter>A	*>Letter>A	*>Letter>A	*>Letter>A	*>Letter>A	*>Letter>A	*>Letter>A	*>Letter>A	*>Letter>A	*>Letter>A
*>Label>Fadeout	*>Label>Fadeout	*>Label>Fadeout	*>Label>Fadeout	*>Label>Fadeout	*>Label>Fadeout	*>Label>Fadeout	*>Label>Fadeout	*>Label>Fadeout	*>Label>Fadeout
8e]	_	4.c] 4.e]	_	1CM	newline	guitar	.	203.963	C:maj
4d	you	.	.	.	.	.	.	.	.
8r	.	[8B [8d	_	.	.	.	.	.	.
8c	yeah	4.B] 4.d]	_	.	.	.	.	.	.
4B	_	.	.	.	.	.	.	.	.
[8A	_	[8A [8c	_	.	.	.	.	.	.
=91	=91	=91	=91	=91	=91	=91	=91	=91	=91
4.A]	_	2A] 2c]	_	1DM	.	guitar	.	206.265	D:maj
8r	.	.	.	.	.	.	.	.	.
2r	.	4.F# 4.A	_	.	.	.	.	.	.
.	.	[8G# [8B	_	.	.	.	.	.	.
=92	=92	=92	=92	=92	=92	=92	=92	=92	=92
1r	.	1G#] 1B]	_	1EM	.	guitar	.	208.567	E:maj
=93	=93	=93	=93	=93	=93	=93	=93	=93	=93
4r	.	4r	.	4EM	.	guitar	.	210.869	E:maj
8B	And	8r	.	4F#mm	.	guitar	.	211.444	F#:min7
8B	I	8r	.	.	.	.	.	.	.
8B	could-	8G# 8B	Ooh	2EM	.	guitar	.	212.02	E:maj/3
4B	-n't	8A 8c	_	.	.	.	.	.	.
.	.	8B 8d	_	.	.	.	.	.	.
[8c	live	[8c [8e	_	.	.	.	.	.	.
=94	=94	=94	=94	=94	=94	=94	=94	=94	=94
4c]	_	4.c] 4.e]	_	1CM	newline	guitar	.	213.17	C:maj
8d	with-	.	.	.	.	.	.	.	.
[8B	-out	[8B [8d	_	.	.	.	.	.	.
8B]	_	4.B] 4.d]	_	.	.	.	.	.	.
4.A	you	.	.	.	.	.	.	.	.
.	.	[8A [8c	_	.	.	.	.	.	.
=95	=95	=95	=95	=95	=95	=95	=95	=95	=95
2r	.	2A] 2c]	_	1DM	.	guitar	.	215.318	D:maj
4r	.	4.F# 4.A	_	.	.	.	.	.	.
8d	to-	.	.	.	.	.	.	.	.
[8B	-night	[8G# [8B	_	.	.	.	.	.	.
=96	=96	=96	=96	=96	=96	=96	=96	=96	=96
4.B]	_	1G#] 1B]	_	1EM	.	guitar	.	217.466	E:maj
8r	.	.	.	.	.	.	.	.	.
2r	.	.	.	.	.	.	.	.	.
=97	=97	=97	=97	=97	=97	=97	=97	=97	=97
1r	.	1r	.	4EM	.	guitar	.	219.614	E:maj
.	.	.	.	4F#mm	.	guitar	.	220.151	F#:min7
.	.	.	.	2EM	.	guitar	.	220.688	E:maj/3
=98	=98	=98	=98	=98	=98	=98	=98	=98	=98
1r	.	1r	.	1CM	.	guitar	.	221.762	C:maj
r;	.	r;	.	1r;	.	r	.	223.91	N.C.
r;	.	r;	.	1r;	.	r	.	227.265	N.C.
*-	*-	*-	*-	*-	*-	*-	*-	*-	*-
!!!BillboardChartDate: 1986/03/22, 1986/07/05
!!!BillboardPeak: 7, 7
!!!BillboardWeeksOnChart: 27, 27
!!!COC: Level 42
!!!ENC: Nathaniel Condit-Schultz
!!!EST: Awating manual error checking and editing.
!!!OTL: Something About You
!!!RDF**chordsym: original McGill chord annotation + (implied pitch class set, with bass pitch in first position)
!!!RDF**harmony: **recip + pitch class of root + harmonic quality
!!!RDF**leadinstrument: original McGill primary instrumentation annotation
!!!RDF**phrase: newline = linebreak in original McGill transcription
!!!RDF**timestamp: McGill audio timestamp in seconds
!!!RDT: 2017/01/12/
!!!SampleActualRank: 52, 34
!!!SampleID#: 158, 1237
!!!SampleTargetRank: 52, 34
